client/assets/image/icons/repo.svg

<svg fill="none" height="414" viewBox="0 0 371 414" width="371" xmlns="http://www.w3.org/2000/svg"><path d="m250.11 189.723h-155.1647l.0005-43.004c30.9542-7.723 53.8882-35.704 53.8882-69.0533 0-39.3045-31.861-71.1657-71.1655-71.1657-39.3042 0-71.1685 31.8608-71.1685 71.1657 0 33.3493 22.9335 61.3303 53.8911 69.0533v120.562c-30.957 7.723-53.8911 35.704-53.8911 69.053 0 39.305 31.8643 71.166 71.1685 71.166 39.3045 0 71.1655-31.861 71.1655-71.166 0-33.349-22.933-61.33-53.8881-69.053v-43.004h155.1641c33.353 0 60.389-27.035 60.389-60.388v-17.169c30.957-7.723 53.891-35.705 53.891-69.0536 0-39.3049-31.865-71.16571-71.169-71.16571s-71.166 31.86121-71.166 71.16571c0 33.3486 22.934 61.3306 53.889 69.0536v17.169c0 14.267-11.567 25.834-25.834 25.834zm-209.0538-112.0593c0-20.2197 16.3903-36.6117 36.6116-36.6117 20.2194 0 36.6112 16.3928 36.6112 36.6117 0 20.2219-16.392 36.6113-36.6112 36.6113-20.2222 0-36.6116-16.3897-36.6116-36.6113zm215.5548 0c0-20.2195 16.393-36.6117 36.612-36.6117 20.222 0 36.611 16.3925 36.611 36.6117 0 20.2222-16.39 36.6113-36.611 36.6113-20.22 0-36.612-16.39-36.612-36.6113zm-215.5548 258.6713c0-20.222 16.39-36.612 36.6116-36.612 20.2197 0 36.6112 16.391 36.6112 36.612 0 20.219-16.3923 36.612-36.6112 36.612-20.2219 0-36.6116-16.393-36.6116-36.612z" fill="#2828d7" stroke="#2828d7" stroke-width="13"/></svg>

<svg width="371" height="414" viewBox="0 0 371 414" fill="none" xmlns="http://www.w3.org/2000/svg">
<path d="M250.11 189.723H94.9453L94.9458 146.719C125.9 138.996 148.834 111.015 148.834 77.6657C148.834 38.3612 116.973 6.5 77.6685 6.5C38.3643 6.5 6.5 38.3608 6.5 77.6657C6.5 111.015 29.4335 138.996 60.3911 146.719V267.281C29.4341 275.004 6.5 302.985 6.5 336.334C6.5 375.639 38.3643 407.5 77.6685 407.5C116.973 407.5 148.834 375.639 148.834 336.334C148.834 302.985 125.901 275.004 94.9459 267.281V224.277H250.11C283.463 224.277 310.499 197.242 310.499 163.889V146.72C341.456 138.997 364.39 111.015 364.39 77.6664C364.39 38.3615 332.525 6.50069 293.221 6.50069C253.917 6.50069 222.055 38.3619 222.055 77.6664C222.055 111.015 244.989 138.997 275.944 146.72V163.889C275.944 178.156 264.377 189.723 250.11 189.723ZM41.0562 77.6637C41.0562 57.444 57.4465 41.052 77.6678 41.052C97.8872 41.052 114.279 57.4448 114.279 77.6637C114.279 97.8856 97.887 114.275 77.6678 114.275C57.4456 114.275 41.0562 97.8853 41.0562 77.6637ZM256.611 77.6637C256.611 57.4442 273.004 41.052 293.223 41.052C313.445 41.052 329.834 57.4445 329.834 77.6637C329.834 97.8859 313.444 114.275 293.223 114.275C273.003 114.275 256.611 97.885 256.611 77.6637ZM41.0562 336.335C41.0562 316.113 57.4462 299.723 77.6678 299.723C97.8875 299.723 114.279 316.114 114.279 336.335C114.279 356.554 97.8867 372.947 77.6678 372.947C57.4459 372.947 41.0562 356.554 41.0562 336.335Z" fill="#2828D7" stroke="#2828D7" stroke-width="13"/>
</svg>
